gtk-icons/Papirus-GTK/16x16/actions/whitebalance.svg

<?xml version="1.0" encoding="UTF-8" standalone="no"?>
<!-- Created with Inkscape (http://www.inkscape.org/) -->

<svg
   xmlns:dc="http://purl.org/dc/elements/1.1/"
   xmlns:cc="http://creativecommons.org/ns#"
   xmlns:rdf="http://www.w3.org/1999/02/22-rdf-syntax-ns#"
   xmlns:svg="http://www.w3.org/2000/svg"
   xmlns="http://www.w3.org/2000/svg"
   xmlns:sodipodi="http://sodipodi.sourceforge.net/DTD/sodipodi-0.dtd"
   xmlns:inkscape="http://www.inkscape.org/namespaces/inkscape"
   width="16"
   height="16"
   id="svg3760"
   version="1.1"
   inkscape:version="0.91 r13725"
   sodipodi:docname="whitebalance.svg">
  <defs
     id="defs3762">
    <style
       type="text/css"
       id="current-color-scheme">
      .ColorScheme-Text {
        color:#4d4d4d;
      }
      .ColorScheme-Background {
        color:#eff0f1;
      }
      .ColorScheme-Highlight {
        color:#3daee9;
      }
      .ColorScheme-ViewText {
        color:#31363b;
      }
      .ColorScheme-ViewBackground {
        color:#fcfcfc;
      }
      .ColorScheme-ViewHover {
        color:#93cee9;
      }
      .ColorScheme-ViewFocus{
        color:#3daee9;
      }
      .ColorScheme-ButtonText {
        color:#31363b;
      }
      .ColorScheme-ButtonBackground {
        color:#eff0f1;
      }
      .ColorScheme-ButtonHover {
        color:#93cee9;
      }
      .ColorScheme-ButtonFocus{
        color:#3daee9;
      }
      </style>
  </defs>
  <sodipodi:namedview
     id="base"
     pagecolor="#ffffff"
     bordercolor="#666666"
     borderopacity="1.0"
     inkscape:pageopacity="0.0"
     inkscape:pageshadow="2"
     inkscape:zoom="23.979308"
     inkscape:cx="4.9736073"
     inkscape:cy="6.583843"
     inkscape:document-units="px"
     inkscape:current-layer="layer1"
     showgrid="false"
     fit-margin-top="0"
     fit-margin-left="0"
     fit-margin-right="0"
     fit-margin-bottom="0"
     inkscape:window-width="1600"
     inkscape:window-height="847"
     inkscape:window-x="0"
     inkscape:window-y="30"
     inkscape:window-maximized="1"
     inkscape:showpageshadow="false"
     inkscape:snap-bbox="true"
     inkscape:object-nodes="true"
     showguides="false">
    <sodipodi:guide
       position="4.1796875e-06,21.999997"
       orientation="22,0"
       id="guide4116" />
    <sodipodi:guide
       position="4.1796875e-06,-2.6953124e-06"
       orientation="0,22"
       id="guide4118" />
    <sodipodi:guide
       position="22.000004,-2.6953124e-06"
       orientation="-22,0"
       id="guide4120" />
    <sodipodi:guide
       position="22.000004,21.999997"
       orientation="0,-22"
       id="guide4122" />
    <sodipodi:guide
       position="2.0000042,19.999997"
       orientation="18,0"
       id="guide4124" />
    <sodipodi:guide
       position="20.000004,1.9999973"
       orientation="-18,0"
       id="guide4128" />
    <sodipodi:guide
       position="20.000004,19.999997"
       orientation="0,-18"
       id="guide4130" />
    <sodipodi:guide
       position="3.0000042,18.999997"
       orientation="16,0"
       id="guide4132" />
    <sodipodi:guide
       position="3.0000042,2.9999973"
       orientation="0,16"
       id="guide4134" />
    <sodipodi:guide
       position="19.000004,2.9999973"
       orientation="-16,0"
       id="guide4136" />
    <sodipodi:guide
       position="19.000004,18.999997"
       orientation="0,-16"
       id="guide4138" />
    <inkscape:grid
       type="xygrid"
       id="grid4140" />
  </sodipodi:namedview>
  <metadata
     id="metadata3765">
    <rdf:RDF>
      <cc:Work
         rdf:about="">
        <dc:format>image/svg+xml</dc:format>
        <dc:type
           rdf:resource="http://purl.org/dc/dcmitype/StillImage" />
        <dc:title></dc:title>
      </cc:Work>
    </rdf:RDF>
  </metadata>
  <g
     inkscape:label="Capa 1"
     inkscape:groupmode="layer"
     id="layer1"
     transform="translate(-553.72253,-589.11926)">
    <rect
       style="color:#4d4d4d;fill:currentColor;fill-opacity:1;stroke:none"
       id="rect4035"
       width="0"
       height="10.999983"
       x="537.72253"
       y="591.11926"
       class="ColorScheme-Text" />
    <rect
       style="color:#4d4d4d;fill:currentColor;fill-opacity:1;stroke:none"
       id="rect4035-5"
       width="0"
       height="10.999983"
       x="555.76331"
       y="589.06799"
       class="ColorScheme-Text" />
    <rect
       style="color:#4d4d4d;fill:currentColor;fill-opacity:1;stroke:none"
       id="rect4035-8"
       width="0"
       height="10.999983"
       x="537.72253"
       y="591.11926"
       class="ColorScheme-Text" />
    <rect
       style="color:#4d4d4d;fill:currentColor;fill-opacity:1;stroke:none"
       id="rect4035-59"
       width="0"
       height="10.999983"
       x="537.72253"
       y="591.11926"
       class="ColorScheme-Text" />
    <rect
       style="color:#4d4d4d;fill:currentColor;fill-opacity:1;stroke:none"
       id="rect4035-60"
       width="0"
       height="10.999983"
       x="516.25439"
       y="587.73975"
       class="ColorScheme-Text" />
    <rect
       style="color:#4d4d4d;fill:currentColor;fill-opacity:1;stroke:none"
       id="rect4035-5-15"
       width="0"
       height="10.999983"
       x="534.29517"
       y="585.68848"
       class="ColorScheme-Text" />
    <rect
       style="color:#4d4d4d;fill:currentColor;fill-opacity:1;stroke:none"
       id="rect4035-8-03"
       width="0"
       height="10.999983"
       x="516.25439"
       y="587.73975"
       class="ColorScheme-Text" />
    <rect
       style="color:#4d4d4d;fill:currentColor;fill-opacity:1;stroke:none"
       id="rect4035-59-10"
       width="0"
       height="10.999983"
       x="516.25439"
       y="587.73975"
       class="ColorScheme-Text" />
    <rect
       style="color:#4d4d4d;fill:currentColor;fill-opacity:1;stroke:none"
       id="rect4035-6"
       width="0"
       height="10.999983"
       x="508.94623"
       y="582.90515"
       class="ColorScheme-Text" />
    <rect
       style="color:#4d4d4d;fill:currentColor;fill-opacity:1;stroke:none"
       id="rect4035-5-1"
       width="0"
       height="10.999983"
       x="526.987"
       y="580.85376"
       class="ColorScheme-Text" />
    <rect
       style="color:#4d4d4d;fill:currentColor;fill-opacity:1;stroke:none"
       id="rect4035-8-3"
       width="0"
       height="10.999983"
       x="508.94623"
       y="582.90515"
       class="ColorScheme-Text" />
    <rect
       style="color:#4d4d4d;fill:currentColor;fill-opacity:1;stroke:none"
       id="rect4035-59-4"
       width="0"
       height="10.999983"
       x="508.94623"
       y="582.90515"
       class="ColorScheme-Text" />
    <rect
       style="color:#4d4d4d;fill:currentColor;fill-opacity:1;stroke:none"
       id="rect4035-1"
       width="0"
       height="10.999983"
       x="514.96136"
       y="587.12134"
       class="ColorScheme-Text" />
    <rect
       style="color:#4d4d4d;fill:currentColor;fill-opacity:1;stroke:none"
       id="rect4035-5-0"
       width="0"
       height="10.999983"
       x="533.00214"
       y="585.07007"
       class="ColorScheme-Text" />
    <rect
       style="color:#4d4d4d;fill:currentColor;fill-opacity:1;stroke:none"
       id="rect4035-8-1"
       width="0"
       height="10.999983"
       x="514.96136"
       y="587.12134"
       class="ColorScheme-Text" />
    <rect
       style="color:#4d4d4d;fill:currentColor;fill-opacity:1;stroke:none"
       id="rect4035-59-1"
       width="0"
       height="10.999983"
       x="514.96136"
       y="587.12134"
       class="ColorScheme-Text" />
    <rect
       style="color:#4d4d4d;fill:currentColor;fill-opacity:1;stroke:none"
       id="rect4035-0"
       width="0"
       height="10.999983"
       x="513.72253"
       y="591.11926"
       class="ColorScheme-Text" />
    <rect
       style="color:#4d4d4d;fill:currentColor;fill-opacity:1;stroke:none"
       id="rect4035-5-5"
       width="0"
       height="10.999983"
       x="531.76331"
       y="589.06799"
       class="ColorScheme-Text" />
    <rect
       style="color:#4d4d4d;fill:currentColor;fill-opacity:1;stroke:none"
       id="rect4035-8-6"
       width="0"
       height="10.999983"
       x="513.72253"
       y="591.11926"
       class="ColorScheme-Text" />
    <rect
       style="color:#4d4d4d;fill:currentColor;fill-opacity:1;stroke:none"
       id="rect4035-59-11"
       width="0"
       height="10.999983"
       x="513.72253"
       y="591.11926"
       class="ColorScheme-Text" />
    <rect
       style="color:#4d4d4d;fill:currentColor;fill-opacity:1;stroke:none"
       id="rect4035-9"
       width="0"
       height="10.999983"
       x="497.73444"
       y="587.48535"
       class="ColorScheme-Text" />
    <rect
       style="color:#4d4d4d;fill:currentColor;fill-opacity:1;stroke:none"
       id="rect4035-5-8"
       width="0"
       height="10.999983"
       x="515.77521"
       y="585.43408"
       class="ColorScheme-Text" />
    <rect
       style="color:#4d4d4d;fill:currentColor;fill-opacity:1;stroke:none"
       id="rect4035-8-0"
       width="0"
       height="10.999983"
       x="497.73444"
       y="587.48535"
       class="ColorScheme-Text" />
    <rect
       style="color:#4d4d4d;fill:currentColor;fill-opacity:1;stroke:none"
       id="rect4035-59-1-8"
       width="0"
       height="10.999983"
       x="497.73444"
       y="587.48535"
       class="ColorScheme-Text" />
    <rect
       class="ColorScheme-Text"
       style="color:#4d4d4d;fill:#000000;fill-opacity:1;stroke:none"
       id="rect4035-52"
       width="0"
       height="10.999983"
       x="513.25439"
       y="590.73975" />
    <rect
       class="ColorScheme-Text"
       style="color:#4d4d4d;fill:#000000;fill-opacity:1;stroke:none"
       id="rect4035-5-3"
       width="0"
       height="10.999983"
       x="531.29517"
       y="588.68848" />
    <rect
       class="ColorScheme-Text"
       style="color:#4d4d4d;fill:#000000;fill-opacity:1;stroke:none"
       id="rect4035-8-7"
       width="0"
       height="10.999983"
       x="513.25439"
       y="590.73975" />
    <rect
       class="ColorScheme-Text"
       style="color:#4d4d4d;fill:#000000;fill-opacity:1;stroke:none"
       id="rect4035-59-9"
       width="0"
       height="10.999983"
       x="513.25439"
       y="590.73975" />
    <rect
       class="ColorScheme-Text"
       style="color:#4d4d4d;fill:#000000;fill-opacity:1;stroke:none"
       id="rect4035-6-9"
       width="0"
       height="10.999983"
       x="505.94623"
       y="585.90515" />
    <rect
       class="ColorScheme-Text"
       style="color:#4d4d4d;fill:#000000;fill-opacity:1;stroke:none"
       id="rect4035-5-1-1"
       width="0"
       height="10.999983"
       x="523.987"
       y="583.85376" />
    <rect
       class="ColorScheme-Text"
       style="color:#4d4d4d;fill:#000000;fill-opacity:1;stroke:none"
       id="rect4035-8-3-9"
       width="0"
       height="10.999983"
       x="505.94623"
       y="585.90515" />
    <rect
       class="ColorScheme-Text"
       style="color:#4d4d4d;fill:#000000;fill-opacity:1;stroke:none"
       id="rect4035-59-4-2"
       width="0"
       height="10.999983"
       x="505.94623"
       y="585.90515" />
    <rect
       class="ColorScheme-Text"
       style="color:#4d4d4d;fill:#000000;fill-opacity:1;stroke:none"
       id="rect4035-1-5"
       width="0"
       height="10.999983"
       x="511.9614"
       y="590.12134" />
    <rect
       class="ColorScheme-Text"
       style="color:#4d4d4d;fill:#000000;fill-opacity:1;stroke:none"
       id="rect4035-5-0-1"
       width="0"
       height="10.999983"
       x="530.00214"
       y="588.07007" />
    <rect
       class="ColorScheme-Text"
       style="color:#4d4d4d;fill:#000000;fill-opacity:1;stroke:none"
       id="rect4035-8-1-1"
       width="0"
       height="10.999983"
       x="511.9614"
       y="590.12134" />
    <rect
       class="ColorScheme-Text"
       style="color:#4d4d4d;fill:#000000;fill-opacity:1;stroke:none"
       id="rect4035-59-1-7"
       width="0"
       height="10.999983"
       x="511.9614"
       y="590.12134" />
    <rect
       class="ColorScheme-Text"
       style="color:#4d4d4d;fill:#000000;fill-opacity:1;stroke:none"
       id="rect4035-0-9"
       width="0"
       height="10.999983"
       x="510.72253"
       y="594.11926" />
    <rect
       class="ColorScheme-Text"
       style="color:#4d4d4d;fill:#000000;fill-opacity:1;stroke:none"
       id="rect4035-5-5-6"
       width="0"
       height="10.999983"
       x="528.76331"
       y="592.06799" />
    <rect
       class="ColorScheme-Text"
       style="color:#4d4d4d;fill:#000000;fill-opacity:1;stroke:none"
       id="rect4035-8-6-3"
       width="0"
       height="10.999983"
       x="510.72253"
       y="594.11926" />
    <rect
       class="ColorScheme-Text"
       style="color:#4d4d4d;fill:#000000;fill-opacity:1;stroke:none"
       id="rect4035-59-11-1"
       width="0"
       height="10.999983"
       x="510.72253"
       y="594.11926" />
    <rect
       class="ColorScheme-Text"
       style="color:#4d4d4d;fill:#000000;fill-opacity:1;stroke:none"
       id="rect4035-9-0"
       width="0"
       height="10.999983"
       x="494.73444"
       y="590.48535" />
    <rect
       class="ColorScheme-Text"
       style="color:#4d4d4d;fill:#000000;fill-opacity:1;stroke:none"
       id="rect4035-5-8-8"
       width="0"
       height="10.999983"
       x="512.77521"
       y="588.43408" />
    <rect
       class="ColorScheme-Text"
       style="color:#4d4d4d;fill:#000000;fill-opacity:1;stroke:none"
       id="rect4035-8-0-2"
       width="0"
       height="10.999983"
       x="494.73444"
       y="590.48535" />
    <rect
       class="ColorScheme-Text"
       style="color:#4d4d4d;fill:#000000;fill-opacity:1;stroke:none"
       id="rect4035-59-1-8-5"
       width="0"
       height="10.999983"
       x="494.73444"
       y="590.48535" />
    <path
       style="color:#4d4d4d;fill:#000000;fill-opacity:1;stroke:none;opacity:0.5"
       d="M 7.5 0 L 7.5 1.8125 L 8.5 1.8125 L 8.5 0 L 7.5 0 z M 2.6875 1.96875 L 1.96875 2.6875 L 3.25 4 L 3.96875 3.25 L 2.6875 1.96875 z M 13.3125 1.96875 L 12.03125 3.25 L 12.75 4 L 14.03125 2.6875 L 13.3125 1.96875 z M 8 3 C 5.23858 3 3 5.2386 3 8 C 3 10.7614 5.23858 13 8 13 C 10.76142 13 13 10.7614 13 8 C 13 5.2386 10.76142 3 8 3 z M 8 5 A 3 3 0 0 1 11 8 A 3 3 0 0 1 8 11 A 3 3 0 0 1 5 8 A 3 3 0 0 1 8 5 z M 0 7.5 L 0 8.5 L 1.8125 8.5 L 1.8125 7.5 L 0 7.5 z M 14.1875 7.5 L 14.1875 8.5 L 16 8.5 L 16 7.5 L 14.1875 7.5 z M 3.25 12.03125 L 1.96875 13.3125 L 2.6875 14.03125 L 3.96875 12.75 L 3.25 12.03125 z M 12.75 12.03125 L 12.03125 12.75 L 13.3125 14.03125 L 14.03125 13.3125 L 12.75 12.03125 z M 7.5 14.1875 L 7.5 16 L 8.5 16 L 8.5 14.1875 L 7.5 14.1875 z "
       transform="translate(553.72253,589.11926)"
       id="path4210" />
  </g>
</svg>

<?xml version="1.0" encoding="UTF-8" standalone="no"?>
<!-- Created with Inkscape (http://www.inkscape.org/) -->
<svg id="svg3760" xmlns:rdf="http://www.w3.org/1999/02/22-rdf-syntax-ns#" xmlns="http://www.w3.org/2000/svg" height="16" width="16" version="1.1" xmlns:cc="http://creativecommons.org/ns#" xmlns:dc="http://purl.org/dc/elements/1.1/">
 <defs id="defs3762">
  <style id="current-color-scheme" type="text/css">.ColorScheme-Text {
        color:#4d4d4d;
      }
      .ColorScheme-Background {
        color:#eff0f1;
      }
      .ColorScheme-Highlight {
        color:#3daee9;
      }
      .ColorScheme-ViewText {
        color:#31363b;
      }
      .ColorScheme-ViewBackground {
        color:#fcfcfc;
      }
      .ColorScheme-ViewHover {
        color:#93cee9;
      }
      .ColorScheme-ViewFocus{
        color:#3daee9;
      }
      .ColorScheme-ButtonText {
        color:#31363b;
      }
      .ColorScheme-ButtonBackground {
        color:#eff0f1;
      }
      .ColorScheme-ButtonHover {
        color:#93cee9;
      }
      .ColorScheme-ButtonFocus{
        color:#3daee9;
      }</style>
 </defs>
 <metadata id="metadata3765">
  <rdf:RDF>
   <cc:Work rdf:about="">
    <dc:format>image/svg+xml</dc:format>
    <dc:type rdf:resource="http://purl.org/dc/dcmitype/StillImage"/>
    <dc:title/>
   </cc:Work>
  </rdf:RDF>
 </metadata>
 <g id="layer1" transform="translate(-553.72 -589.12)">
  <rect id="rect4035" style="color:#4d4d4d" class="ColorScheme-Text" height="11" width="0" y="591.12" x="537.72" fill="currentColor"/>
  <rect id="rect4035-5" style="color:#4d4d4d" class="ColorScheme-Text" height="11" width="0" y="589.07" x="555.76" fill="currentColor"/>
  <rect id="rect4035-8" style="color:#4d4d4d" class="ColorScheme-Text" height="11" width="0" y="591.12" x="537.72" fill="currentColor"/>
  <rect id="rect4035-59" style="color:#4d4d4d" class="ColorScheme-Text" height="11" width="0" y="591.12" x="537.72" fill="currentColor"/>
  <rect id="rect4035-60" style="color:#4d4d4d" class="ColorScheme-Text" height="11" width="0" y="587.74" x="516.25" fill="currentColor"/>
  <rect id="rect4035-5-15" style="color:#4d4d4d" class="ColorScheme-Text" height="11" width="0" y="585.69" x="534.3" fill="currentColor"/>
  <rect id="rect4035-8-03" style="color:#4d4d4d" class="ColorScheme-Text" height="11" width="0" y="587.74" x="516.25" fill="currentColor"/>
  <rect id="rect4035-59-10" style="color:#4d4d4d" class="ColorScheme-Text" height="11" width="0" y="587.74" x="516.25" fill="currentColor"/>
  <rect id="rect4035-6" style="color:#4d4d4d" class="ColorScheme-Text" height="11" width="0" y="582.91" x="508.95" fill="currentColor"/>
  <rect id="rect4035-5-1" style="color:#4d4d4d" class="ColorScheme-Text" height="11" width="0" y="580.85" x="526.99" fill="currentColor"/>
  <rect id="rect4035-8-3" style="color:#4d4d4d" class="ColorScheme-Text" height="11" width="0" y="582.91" x="508.95" fill="currentColor"/>
  <rect id="rect4035-59-4" style="color:#4d4d4d" class="ColorScheme-Text" height="11" width="0" y="582.91" x="508.95" fill="currentColor"/>
  <rect id="rect4035-1" style="color:#4d4d4d" class="ColorScheme-Text" height="11" width="0" y="587.12" x="514.96" fill="currentColor"/>
  <rect id="rect4035-5-0" style="color:#4d4d4d" class="ColorScheme-Text" height="11" width="0" y="585.07" x="533" fill="currentColor"/>
  <rect id="rect4035-8-1" style="color:#4d4d4d" class="ColorScheme-Text" height="11" width="0" y="587.12" x="514.96" fill="currentColor"/>
  <rect id="rect4035-59-1" style="color:#4d4d4d" class="ColorScheme-Text" height="11" width="0" y="587.12" x="514.96" fill="currentColor"/>
  <rect id="rect4035-0" style="color:#4d4d4d" class="ColorScheme-Text" height="11" width="0" y="591.12" x="513.72" fill="currentColor"/>
  <rect id="rect4035-5-5" style="color:#4d4d4d" class="ColorScheme-Text" height="11" width="0" y="589.07" x="531.76" fill="currentColor"/>
  <rect id="rect4035-8-6" style="color:#4d4d4d" class="ColorScheme-Text" height="11" width="0" y="591.12" x="513.72" fill="currentColor"/>
  <rect id="rect4035-59-11" style="color:#4d4d4d" class="ColorScheme-Text" height="11" width="0" y="591.12" x="513.72" fill="currentColor"/>
  <rect id="rect4035-9" style="color:#4d4d4d" class="ColorScheme-Text" height="11" width="0" y="587.49" x="497.73" fill="currentColor"/>
  <rect id="rect4035-5-8" style="color:#4d4d4d" class="ColorScheme-Text" height="11" width="0" y="585.43" x="515.78" fill="currentColor"/>
  <rect id="rect4035-8-0" style="color:#4d4d4d" class="ColorScheme-Text" height="11" width="0" y="587.49" x="497.73" fill="currentColor"/>
  <rect id="rect4035-59-1-8" style="color:#4d4d4d" class="ColorScheme-Text" height="11" width="0" y="587.49" x="497.73" fill="currentColor"/>
  <rect id="rect4035-52" style="color:#4d4d4d" y="590.74" height="11" width="0" x="513.25" class="ColorScheme-Text"/>
  <rect id="rect4035-5-3" style="color:#4d4d4d" y="588.69" height="11" width="0" x="531.3" class="ColorScheme-Text"/>
  <rect id="rect4035-8-7" style="color:#4d4d4d" y="590.74" height="11" width="0" x="513.25" class="ColorScheme-Text"/>
  <rect id="rect4035-59-9" style="color:#4d4d4d" y="590.74" height="11" width="0" x="513.25" class="ColorScheme-Text"/>
  <rect id="rect4035-6-9" style="color:#4d4d4d" y="585.91" height="11" width="0" x="505.95" class="ColorScheme-Text"/>
  <rect id="rect4035-5-1-1" style="color:#4d4d4d" y="583.85" height="11" width="0" x="523.99" class="ColorScheme-Text"/>
  <rect id="rect4035-8-3-9" style="color:#4d4d4d" y="585.91" height="11" width="0" x="505.95" class="ColorScheme-Text"/>
  <rect id="rect4035-59-4-2" style="color:#4d4d4d" y="585.91" height="11" width="0" x="505.95" class="ColorScheme-Text"/>
  <rect id="rect4035-1-5" style="color:#4d4d4d" y="590.12" height="11" width="0" x="511.96" class="ColorScheme-Text"/>
  <rect id="rect4035-5-0-1" style="color:#4d4d4d" y="588.07" height="11" width="0" x="530" class="ColorScheme-Text"/>
  <rect id="rect4035-8-1-1" style="color:#4d4d4d" y="590.12" height="11" width="0" x="511.96" class="ColorScheme-Text"/>
  <rect id="rect4035-59-1-7" style="color:#4d4d4d" y="590.12" height="11" width="0" x="511.96" class="ColorScheme-Text"/>
  <rect id="rect4035-0-9" style="color:#4d4d4d" y="594.12" height="11" width="0" x="510.72" class="ColorScheme-Text"/>
  <rect id="rect4035-5-5-6" style="color:#4d4d4d" y="592.07" height="11" width="0" x="528.76" class="ColorScheme-Text"/>
  <rect id="rect4035-8-6-3" style="color:#4d4d4d" y="594.12" height="11" width="0" x="510.72" class="ColorScheme-Text"/>
  <rect id="rect4035-59-11-1" style="color:#4d4d4d" y="594.12" height="11" width="0" x="510.72" class="ColorScheme-Text"/>
  <rect id="rect4035-9-0" style="color:#4d4d4d" y="590.49" height="11" width="0" x="494.73" class="ColorScheme-Text"/>
  <rect id="rect4035-5-8-8" style="color:#4d4d4d" y="588.43" height="11" width="0" x="512.78" class="ColorScheme-Text"/>
  <rect id="rect4035-8-0-2" style="color:#4d4d4d" y="590.49" height="11" width="0" x="494.73" class="ColorScheme-Text"/>
  <rect id="rect4035-59-1-8-5" style="color:#4d4d4d" y="590.49" height="11" width="0" x="494.73" class="ColorScheme-Text"/>
  <path id="path4210" opacity=".5" style="color:#4d4d4d" d="m7.5 0v1.8125h1v-1.8125h-1zm-4.8125 1.9688l-0.7187 0.7187 1.2812 1.3125 0.7188-0.75-1.2813-1.2812zm10.624 0l-1.281 1.2812 0.719 0.75 1.281-1.3125-0.719-0.7187zm-5.312 1.0312c-2.7614 0-5 2.2386-5 5 0 2.761 2.2386 5 5 5 2.761 0 5-2.239 5-5 0-2.7614-2.239-5-5-5zm0 2a3 3 0 0 1 3 3 3 3 0 0 1 -3 3 3 3 0 0 1 -3 -3 3 3 0 0 1 3 -3zm-8 2.5v1h1.8125v-1h-1.8125zm14.188 0v1h1.812v-1h-1.812zm-10.938 4.531l-1.2812 1.281 0.7187 0.719 1.2813-1.281-0.7188-0.719zm9.5 0l-0.719 0.719 1.281 1.281 0.719-0.719-1.281-1.281zm-5.25 2.157v1.812h1v-1.812h-1z" transform="translate(553.72 589.12)"/>
 </g>
</svg>
